X:487
T: Yenghongjunge
N: C1906
O: China, Zhejiang Chunan
S: III, 623]
R: Xiaodiao]
M: 2/4
L: 1/16
K: G
d4B2A2 | d4B2A2 | B2G4B2 | A8
d3ed2B2 | A6B2 | G3AG2E2 | D8
G4d2B2 | A2B2A2G2 | E3DE2G2 | D6
E2 | G4E2G2 | A3BA2G2 | E2D2E2B,2 | D8
B6d2 | B4d4 | e4B4 | d4d4
d3ed2B2 | A6B2 | G3AG2E2 | D8
G4E2G2 | A3BA2G2 | E3DE2B,2 | D8

